X:0376
T:This is not my Ain House
N:Aird's variants start at the beginning of the bar e.g. |[1 BEEG|
M:2/4
L:1/8
Q:1/4=90
I: :: (1) :| (2) ||
Z:Jack Campin * www.campin.me.uk * 2009
K:D
   A|FA2a|(f/g/a) ed|(B/c/d) AF|BEE
   G|FA2a| f/g/a Ted|(B/c/d) AF|ADD:|
   A|FA2d|(B/c/d) AF| GBAF     |BEE
[1 G|FA2d|(B/c/d) AF| GBAF     |ADD:|
[2 g|afge| fdec     | dBAF     |ADD|]

